X:1
T:Abendglocken
T: Franz Abt
T:Vers 1 und 2: Johann Jacob Leuthi Vers a und b: Johann Jakob Sprüngli
T: Abendglocken 
T:CPDL   —   Creative Commons Attribution Non Commercial 3.0
T:CPDL   —   Creative Commons Attribution Non Commercial 3.0
T:CPDL   —   Creative Commons Attribution Non Commercial 3.0
C:Franz Abt
Z:Johann Jacob Leuthi /  Johann Jakob Sprüngli
Z:CPDL   —   Creative Commons Attribution Non Commercial 3.0
%%score [ 1 2 3 4 ]
L:1/8
Q:1/4=90
M:4/4
K:G
V:1 treble-8 nm="Tenor"
V:2 treble-8 nm="Tenor"
V:3 bass nm="Bass"
V:4 bass nm="Bass"
V:1
"^Langsam und feierlich"!pp! B2 | B3 B!<(! d2!<)! d2 |!>(! g4!>)! B2 B2 | !>!e3 e!>(! d2!>)! c2 | %4
w: 1.  Die|A- bend- glo- cken|klin- gen, das|Tag- werk ist voll-|
w: 2.  Es|leuch- ten Mond und|Ster- ne am|ho- hen Him- mels-|
 B4- B z!pp! B2 | d3 d d3 d |!<(! (^c2 d2)!<)! e2 f2 |!mf! g3 e!>(! d2 ^c2!>)! | d4 z2!p! d2 | %9
w: bracht; _ es|sinkt auf heil'- gen|Schwin- * gen her-|ab die stil- le|Nacht, sie|
w: zelt, _ aus|licht- er- füll- ter|Fer- * ne be-|strah- len sie die|Welt; dort|
!<(! d2!<)! a2 g!>(!f e!>)!d |!p! (d2 g2) B2 d2 |!<(! d2!<)! a2 g!>(!f e!>)!d | (d2 g2) B2 d2 | %13
w: spen- det sü- * ßen _|Schlum- * mer, ver-|süßt uns man- * chen _|Kum- * mer, ein|
w: thront der Heil'- * ge, _|Heh- * re, ihm|Lob und Preis _ und _|Eh- * re, der|
"^cresc. e string." e3 e f3 f |!f! g6!mf! B2 |"^crescendo" c3 c d3 d |!ff! e8- | %17
w: Gott im Him- mel|wacht, ein|Gott im Him- mel|wacht,|
w: un- ser Le- ben|hält, der|un- ser Le- ben|hält,|
 e z z2!pp![Q:1/4=90]"^a tempo" e4 | d4 d4 | e4!<(! (f2 g2)!<)! |!mf! d4!>(! d4!>)! | %21
w: _ in|stil- ler|Nacht, in _|stil- ler|
w: _ dem|Herrn der|Welt, dem _|Herrn der|
 !fermata!d4 z2 |] %22
w: Nacht.|
w: Welt.|
V:2
!pp! G2 | G3 G!<(! A2!<)! A2 |!>(! B4!>)! B2 B2 | !>!A3 A!>(! A2!>)! F2 | G4- G z!pp! G2 | %5
 B3 B A3 A |!<(! A4!<)! A2 A2 |!mf! B3 B!>(! A2 A2!>)! | A4 z2!p! A2 | =c3 c c2 c2 | %10
!p! (B2 G2) d2 B2 | c3 c c2 c2 | (B2 G2) d2 B2 |"^cresc. e string." c3 e ^d3 d |!f! e6!mf! B2 | %15
"^crescendo" c3 c B3 B |!ff! c8- | c z z2!pp! c4 | c4 B4 | c4!<(! _B4!<)! |!mf! =B4!>(! c4!>)! | %21
 !fermata!B4 z2 |] %22
V:3
!pp! D,2 | D,3 D,!<(! D,2!<)! F,2 |!>(! G,4!>)! G,2 G,2 | !>!G,3 G,!>(! F,2!>)! D,2 | %4
w: a.  Die|Sab- bat- glo- cken|hal- len voll|ho- her Ma- jes-|
w: b. Groß|ist, was Got- tes|Gna- de uns|al- len wie- der *2|
 D,4- D, z!pp! D,2 | G,3 G, A,3 F, |!<(! (G,2 F,2)!<)! G,2 F,D, |!mf! D,3 E,!>(! F,2 G,2!>)! | %8
w: tät, _ die|from- men Scha- ren *1|wal- * len heut' _|al- le zum Ge-|
w: gab, _ doch|wei- chen von dem|Pfa- * de des _|Gu- ten wir oft|
 F,4 z2!p! D,2 | F,3 F, A,2 D,2 |!p!!<(! (D,2!<)! B,2) A,!>(!G, F,!>)!E, | F,3 F, A,2 D,2 | %12
w: bet. Der|An- dacht Lie- der|tö- * nen, _ es _|schwingt im from- men|
w: ab. Wir|füh- len das mit|Reu- * e _ und _|fle- hen heut' aufs|
 (D,2!<(! B,2)!<)! A,!>(!G, F,!>)!G, |"^cresc. e string." G,3 C B,3 B, |!f! B,6!mf! G,2 | %15
w: Seh- * nen _ sich _|un- ser Herz em-|por, sich|
w: neu- * e _ zu _|Got- tes Va- ter-|huld, zu|
"^crescendo" G,3 G, G,3 G, |!ff! G,8- | G, z z2!pp! (A,2 G,2) | F,4 G,4 | G,4!<(! (F,2 E,2)!<)! | %20
w: un- ser Herz em-|por,|_ neig' _|uns, o|Herr, neig' _|
w: Got- tes Va- ter-|huld:|_ Trag', _|Va- ter,|trag' uns _|
!mf! (D,2 G,4)!>(! F,2!>)! | !fermata!G,4 z2 |] %22
w: uns _ dein|Ohr!|
w: mit _ Ge-|duld.|
V:4
!pp! G,,2 | G,,3 G,,!<(! F,,2!<)! F,2 |!>(! E,4!>)! E,2 D,2 | !>!C,3 C,!>(! D,2!>)! [D,,D,]2 | %4
w: ||||
w: ||||
w: ||||
w: ||||
 G,,4- G,, z!pp! G,,2 | G,3 G, F,3 F, |!<(! (E,2 D,2)!<)! ^C,2 D,2 | %7
w: |||
w: |||
w: |||
w: |||
!mf! G,,3 G,,!>(! A,,2 A,,2!>)! | D,2!pp! D,2 A,2 F,2 | D,4 D,4 |!pp! G,,4 G,,2 G,,2 | %11
w: |* sie spen- det|sü- ßen||
w: |* dort thront der|Heil'- ge||
w: |* Der An- dacht|Lie- der||
w: |* Wir füh- len|das mit||
 D,3 D, D,2 D,2 | G,,4 G,,2 G,,2 |"^cresc. e string." C,3 C B,3 B, |!f! E,6!mf! =F,2 | %15
w: ||||
w: ||||
w: ||||
w: ||||
"^crescendo" E,3 E, D,3 D, |!ff! C,8- | C, z z2!pp! A,,4 | D,4 G,,4 | C,4!<(! ^C,4!<)! | %20
w: |||||
w: |||||
w: |||||
w: |||||
!mf! D,4!>(! D,4!>)! | !fermata!G,,4 z2 |] %22
w: stil- ler|Nacht.|
w: Herrn der|Welt.|
w: uns dein|Ohr!|
w: mit Ge-|duld.|

